X: 171
T: Charlie's Favorite/Uncle Charlie's Schottische
B: canberra pickers and fiddlers
B: old time tunes update
B: tunes
M:4/4
L:1/8
Q: 1/4=100
K:G
V:1 
B,>C|:"G"D>B (3BAB B>G A>B|"C"c>B c>G "Am"E2A>G|"D7"(3FGF (3FGF E>D D>D|1"C"E>D E>D"G".B2(3B,CB,:|2D>c B>A "G".G2 (3B,CB,||
|:"G"D>B A>GD2 (3DED|"C"E>c c>A "Am"E2A>G|"D7"F>G A>B c>A (3FED|1"G"(3GDG B>G D2 (3B,CB,:|2"G"(3GDG B>AG2||
% abcbook-tune_id 67a7d9ec026faf33f576881a
% abcbook-tune_composer_id 
% abcbook-link-0 https://www.youtube.com/watch?v=gePGzqMIZ9Q
% abcbook-link-title-0 Uncle Charlie&#39;s Tune/ Charlie&#39;s Favorite (fiddle)
% abcbook-boost 0
% abcbook-difficulty 0
% abcbook-tags old time tunes
% abcbook-tablature 
% abcbook-transpose 
% abcbook-tuning GDAD
% abcbook-lastupdated 1739147615786
% abcbook-src-url 
% abcbook-soundfonts 
% abcbook-repeats 1
% NFF Book 2010

